assets/img/nysds-logo-stacked.svg

<svg width="986" height="219" viewBox="0 0 986 219" fill="none" xmlns="http://www.w3.org/2000/svg">
<g clip-path="url(#clip0_7_74)">
<path d="M300.166 98.8549L261.981 45.0607V98.8549H244.931V18.7638H262.462L299.566 70.6375V18.7638H316.617V98.8549H300.166Z" fill="#1B1B1B"/>
<path d="M353.002 39.4174C370.293 39.4174 382.061 52.3848 382.061 71.3575V74.7194H338.953C339.914 82.0437 345.798 88.1687 355.643 88.1687C361.047 88.1687 367.411 86.0072 371.134 82.4043L377.858 92.2507C371.974 97.6543 362.969 100.296 353.962 100.296C336.311 100.296 322.983 88.4082 322.983 69.7963C322.983 52.9851 335.351 39.4174 353.002 39.4174ZM338.713 64.3926H367.292C366.931 58.8692 363.088 51.545 353.002 51.545C343.515 51.545 339.433 58.6296 338.713 64.3926Z" fill="#1B1B1B"/>
<path d="M438.377 98.8549L426.129 59.3497L413.881 98.8549H397.55L379.899 40.8575H395.75L406.557 79.8823L419.285 40.8575H432.853L445.582 79.8823L456.388 40.8575H472.238L454.587 98.8549H438.377Z" fill="#1B1B1B"/>
<path d="M514.028 98.8549V66.0737L483.169 18.7638H502.621L522.554 50.9448L542.247 18.7638H561.699L531.079 66.0737V98.8549H514.028Z" fill="#1B1B1B"/>
<path d="M544.888 69.7963C544.888 53.3457 556.415 39.4174 575.507 39.4174C594.72 39.4174 606.247 53.3457 606.247 69.7963C606.247 86.3666 594.72 100.296 575.507 100.296C556.415 100.296 544.888 86.3666 544.888 69.7963ZM590.397 69.7963C590.397 60.7911 584.993 52.9851 575.507 52.9851C566.021 52.9851 560.738 60.7911 560.738 69.7963C560.738 78.9226 566.021 86.7273 575.507 86.7273C584.993 86.7273 590.397 78.9226 590.397 69.7963Z" fill="#1B1B1B"/>
<path d="M612.972 98.8549V40.8575H628.222V48.7833C632.304 43.6193 639.509 39.5372 646.713 39.5372V54.4266C645.632 54.187 644.192 54.0659 642.511 54.0659C637.467 54.0659 630.743 56.8276 628.222 60.5503V98.8549H612.972Z" fill="#1B1B1B"/>
<path d="M688.644 98.8549L673.275 76.5203L666.311 83.9656V98.8549H651.061V18.7638H666.311V66.674L688.285 40.8575H707.017L684.082 67.1544L707.737 98.8549H688.644Z" fill="#1B1B1B"/>
<path d="M734.875 74.5997C740.519 80.4838 749.285 85.407 760.332 85.407C769.698 85.407 774.26 80.963 774.26 76.4005C774.26 70.3966 767.297 68.3549 758.05 66.1934C744.962 63.1921 728.151 59.5893 728.151 41.6987C728.151 28.3705 739.678 17.5632 758.531 17.5632C771.259 17.5632 781.825 21.4057 789.75 28.7299L780.264 41.2182C773.78 35.2143 765.135 32.4526 757.329 32.4526C749.644 32.4526 745.562 35.8145 745.562 40.6179C745.562 46.0216 752.286 47.7026 761.532 49.864C774.741 52.8653 791.552 56.8276 791.552 74.5997C791.552 89.2481 781.105 100.296 759.491 100.296C744.121 100.296 733.074 95.1322 725.509 87.5671L734.875 74.5997Z" fill="#1B1B1B"/>
<path d="M801.074 84.446V54.1869H791.468V40.8575H801.074V25.0072H816.444V40.8575H828.212V54.1869H816.444V80.3627C816.444 83.9655 818.365 86.7273 821.727 86.7273C824.009 86.7273 826.17 85.8861 827.01 85.0463L830.252 96.5736C827.971 98.6153 823.889 100.296 817.524 100.296C806.838 100.296 801.074 94.7728 801.074 84.446Z" fill="#1B1B1B"/>
<path d="M869.651 98.8549V92.851C865.688 97.5345 858.845 100.296 851.28 100.296C842.034 100.296 831.106 94.0515 831.106 81.084C831.106 67.515 842.034 62.5918 851.28 62.5918C858.965 62.5918 865.808 64.9929 869.651 69.6765V61.6309C869.651 55.7468 864.608 51.9043 856.923 51.9043C850.679 51.9043 844.915 54.1869 839.992 58.7494L834.229 48.5424C841.313 42.2989 850.438 39.4174 859.565 39.4174C872.773 39.4174 884.901 44.6999 884.901 61.3913V98.8549H869.651ZM869.651 77.722C867.13 74.3588 862.326 72.6778 857.403 72.6778C851.399 72.6778 846.476 75.92 846.476 81.4434C846.476 86.847 851.399 89.9694 857.403 89.9694C862.326 89.9694 867.13 88.2885 869.651 84.9265V77.722Z" fill="#1B1B1B"/>
<path d="M898.23 84.446V54.1869H888.625V40.8575H898.23V25.0072H913.6V40.8575H925.368V54.1869H913.6V80.3627C913.6 83.9655 915.522 86.7273 918.884 86.7273C921.165 86.7273 923.326 85.8861 924.166 85.0463L927.408 96.5736C925.127 98.6153 921.045 100.296 914.681 100.296C903.994 100.296 898.23 94.7728 898.23 84.446Z" fill="#1B1B1B"/>
<path d="M957.549 39.4174C974.84 39.4174 986.608 52.3848 986.608 71.3575V74.7194H943.5C944.461 82.0437 950.345 88.1687 960.19 88.1687C965.594 88.1687 971.958 86.0072 975.681 82.4043L982.405 92.2507C976.521 97.6543 967.515 100.296 958.509 100.296C940.858 100.296 927.53 88.4082 927.53 69.7963C927.53 52.9851 939.898 39.4174 957.549 39.4174ZM943.26 64.3926H971.838C971.478 58.8692 967.635 51.545 957.549 51.545C948.062 51.545 943.98 58.6296 943.26 64.3926Z" fill="#1B1B1B"/>
<path d="M246.204 190.523V118.109H270.957C293.431 118.109 308.088 133.851 308.088 154.371C308.088 174.998 293.431 190.523 270.957 190.523H246.204ZM255.216 182.489H270.957C288.545 182.489 298.75 169.895 298.75 154.371C298.75 138.737 288.871 126.142 270.957 126.142H255.216V182.489Z" fill="#1B1B1B"/>
<path d="M338.703 136.783C354.554 136.783 363.891 149.159 363.891 164.901V166.964H321.441C322.092 176.844 329.041 185.095 340.332 185.095C346.303 185.095 352.383 182.707 356.509 178.473L360.417 183.792C355.206 189.003 348.148 191.826 339.572 191.826C324.046 191.826 312.864 180.644 312.864 164.25C312.864 149.05 323.721 136.783 338.703 136.783ZM321.441 160.993H355.857C355.749 153.175 350.538 143.513 338.595 143.513C327.413 143.513 321.875 152.958 321.441 160.993Z" fill="#1B1B1B"/>
<path d="M371.272 177.713C374.746 181.729 381.37 185.203 388.535 185.203C396.569 185.203 400.911 181.621 400.911 176.517C400.911 170.764 394.506 168.918 387.449 167.181C378.546 165.118 368.45 162.73 368.45 151.874C368.45 143.731 375.506 136.783 387.992 136.783C396.894 136.783 403.192 140.148 407.426 144.382L403.625 150.027C400.477 146.227 394.723 143.405 387.992 143.405C380.827 143.405 376.375 146.662 376.375 151.33C376.375 156.433 382.347 158.062 389.186 159.69C398.306 161.753 408.837 164.358 408.837 175.976C408.837 184.769 401.781 191.826 388.209 191.826C379.633 191.826 372.358 189.22 367.039 183.575L371.272 177.713Z" fill="#1B1B1B"/>
<path d="M416.002 123.754C416.002 120.714 418.499 118.326 421.43 118.326C424.47 118.326 426.967 120.714 426.967 123.754C426.967 126.794 424.47 129.292 421.43 129.292C418.499 129.292 416.002 126.794 416.002 123.754ZM417.413 190.523V138.085H425.555V190.523H417.413Z" fill="#1B1B1B"/>
<path d="M440.103 197.905C444.445 203.117 449.657 205.071 457.147 205.071C465.833 205.071 473.976 200.836 473.976 189.329V181.838C470.176 187.158 463.771 191.174 456.387 191.174C442.709 191.174 433.045 180.969 433.045 164.033C433.045 147.205 442.6 136.783 456.387 136.783C463.445 136.783 469.742 140.257 473.976 146.01V138.085H482.119V189.003C482.119 206.374 469.959 211.802 457.147 211.802C448.245 211.802 442.166 210.065 435.978 203.986L440.103 197.905ZM473.976 152.525C471.153 147.965 464.856 144.056 458.341 144.056C447.811 144.056 441.514 152.417 441.514 164.033C441.514 175.54 447.811 184.009 458.341 184.009C464.856 184.009 471.153 179.992 473.976 175.433V152.525Z" fill="#1B1B1B"/>
<path d="M528.258 190.523V156.216C528.258 146.987 523.589 144.056 516.533 144.056C510.128 144.056 504.047 147.965 501.007 152.198V190.523H492.865V138.085H501.007V145.685C504.699 141.342 511.865 136.783 519.681 136.783C530.646 136.783 536.401 142.319 536.401 153.719V190.523H528.258Z" fill="#1B1B1B"/>
<path d="M565.062 173.478C569.839 178.798 577.655 183.792 587.861 183.792C600.781 183.792 604.906 176.843 604.906 171.306C604.906 162.621 596.112 160.233 586.558 157.628C574.941 154.588 562.022 151.33 562.022 137.108C562.022 125.165 572.661 117.023 586.884 117.023C597.957 117.023 606.535 120.714 612.614 127.121L607.186 133.743C601.758 127.771 594.158 125.057 586.233 125.057C577.548 125.057 571.359 129.726 571.359 136.565C571.359 143.839 579.719 146.01 588.947 148.507C600.781 151.657 614.243 155.348 614.243 170.546C614.243 181.078 607.078 191.826 587.535 191.826C574.941 191.826 565.713 187.049 559.742 180.318L565.062 173.478Z" fill="#1B1B1B"/>
<path d="M619.237 203.66C620.431 204.203 622.385 204.529 623.688 204.529C627.27 204.529 629.66 203.334 631.504 198.991L634.979 191.066L613.049 138.085H621.842L639.322 181.078L656.693 138.085H665.595L639.322 201.163C636.173 208.762 630.854 211.694 623.905 211.802C622.168 211.802 619.454 211.477 617.934 211.042L619.237 203.66Z" fill="#1B1B1B"/>
<path d="M669.286 177.713C672.761 181.729 679.383 185.203 686.548 185.203C694.582 185.203 698.925 181.621 698.925 176.517C698.925 170.764 692.519 168.918 685.462 167.181C676.56 165.118 666.463 162.73 666.463 151.874C666.463 143.731 673.519 136.783 686.005 136.783C694.907 136.783 701.205 140.148 705.439 144.382L701.639 150.027C698.491 146.227 692.736 143.405 686.005 143.405C678.84 143.405 674.389 146.662 674.389 151.33C674.389 156.433 680.36 158.062 687.199 159.69C696.32 161.753 706.85 164.358 706.85 175.976C706.85 184.769 699.794 191.826 686.222 191.826C677.646 191.826 670.371 189.22 665.052 183.575L669.286 177.713Z" fill="#1B1B1B"/>
<path d="M718.683 179.558V145.25H709.998V138.085H718.683V123.754H726.826V138.085H737.465V145.25H726.826V177.821C726.826 181.729 728.563 184.552 732.145 184.552C734.425 184.552 736.596 183.575 737.682 182.381L740.07 188.46C738.008 190.414 735.077 191.826 730.3 191.826C722.592 191.826 718.683 187.375 718.683 179.558Z" fill="#1B1B1B"/>
<path d="M766.777 136.783C782.628 136.783 791.965 149.159 791.965 164.901V166.964H749.515C750.166 176.844 757.115 185.095 768.406 185.095C774.378 185.095 780.457 182.707 784.583 178.473L788.491 183.792C783.28 189.003 776.223 191.826 767.646 191.826C752.12 191.826 740.938 180.644 740.938 164.25C740.938 149.05 751.796 136.783 766.777 136.783ZM749.515 160.993H783.931C783.823 153.175 778.612 143.513 766.669 143.513C755.487 143.513 749.949 152.958 749.515 160.993Z" fill="#1B1B1B"/>
<path d="M862.858 190.523V154.914C862.858 148.29 859.927 144.056 853.195 144.056C847.767 144.056 842.013 147.965 839.299 152.091V190.523H831.156V154.914C831.156 148.29 828.333 144.056 821.494 144.056C816.174 144.056 810.528 147.965 807.705 152.198V190.523H799.563V138.085H807.705V145.685C809.878 142.319 816.934 136.783 824.642 136.783C832.676 136.783 837.236 141.125 838.756 146.553C841.687 141.776 848.744 136.783 856.343 136.783C865.898 136.783 871 142.102 871 152.634V190.523H862.858Z" fill="#1B1B1B"/>
<path d="M89.5144 110.894L56.1894 77.5558V48.4713H172.484L217.14 93.4372C211.154 42.5111 167.87 3 115.354 3C58.7453 3 12.8545 48.908 12.8545 105.538C12.8545 128.627 20.4868 149.93 33.3596 167.07" fill="#245FC2"/>
<path d="M56.1894 77.4791H122.839L89.5144 110.817L56.1894 77.4791ZM172.484 48.3945V164.733H143.411V98.0323L53.9263 187.55C71.0453 200.39 92.311 208 115.354 208C171.963 208 217.854 162.092 217.854 105.462C217.854 101.356 217.586 97.3158 217.116 93.3366L172.484 48.3945Z" fill="#0E324F"/>
</g>
<defs>
<clipPath id="clip0_7_74">
<rect width="985.608" height="218.967" fill="white"/>
</clipPath>
</defs>
</svg>

<svg xmlns="http://www.w3.org/2000/svg" width="986" height="219" fill="none" viewBox="0 0 986 219"><g clip-path="url(#a)"><path fill="#1b1b1b" d="M300.166 98.855 261.981 45.06v53.794h-17.05V18.764h17.531l37.104 51.874V18.764h17.051v80.09zM353.002 39.417c17.291 0 29.059 12.968 29.059 31.94v3.362h-43.108c.961 7.325 6.845 13.45 16.69 13.45 5.404 0 11.768-2.162 15.491-5.765l6.724 9.847c-5.884 5.403-14.889 8.045-23.896 8.045-17.651 0-30.979-11.888-30.979-30.5 0-16.81 12.368-30.379 30.019-30.379m-14.289 24.976h28.579c-.361-5.524-4.204-12.848-14.29-12.848-9.487 0-13.569 7.085-14.289 12.848M438.377 98.855 426.129 59.35l-12.248 39.505H397.55l-17.651-57.997h15.851l10.807 39.024 12.728-39.024h13.568l12.729 39.024 10.806-39.024h15.85l-17.651 57.997zM514.028 98.855V66.074l-30.859-47.31h19.452l19.933 32.18 19.693-32.18h19.452l-30.62 47.31v32.78z"/><path fill="#1b1b1b" d="M544.888 69.796c0-16.45 11.527-30.379 30.619-30.379 19.213 0 30.74 13.929 30.74 30.38 0 16.57-11.527 30.499-30.74 30.499-19.092 0-30.619-13.93-30.619-30.5m45.509 0c0-9.005-5.404-16.81-14.89-16.81s-14.769 7.805-14.769 16.81c0 9.127 5.283 16.931 14.769 16.931s14.89-7.804 14.89-16.93M612.972 98.855V40.858h15.25v7.925c4.082-5.164 11.287-9.246 18.491-9.246v14.89c-1.081-.24-2.521-.361-4.202-.361-5.044 0-11.768 2.762-14.289 6.484v38.305zM688.644 98.855 673.275 76.52l-6.964 7.446v14.889h-15.25V18.764h15.25v47.91l21.974-25.817h18.732l-22.935 26.297 23.655 31.7zM734.875 74.6c5.644 5.884 14.41 10.807 25.457 10.807 9.366 0 13.928-4.444 13.928-9.007 0-6.003-6.963-8.045-16.21-10.207-13.088-3-29.899-6.604-29.899-24.494 0-13.328 11.527-24.136 30.38-24.136 12.728 0 23.294 3.843 31.219 11.167l-9.486 12.488c-6.484-6.004-15.129-8.765-22.935-8.765-7.685 0-11.767 3.361-11.767 8.165 0 5.404 6.724 7.085 15.97 9.246 13.209 3.001 30.02 6.964 30.02 24.736 0 14.648-10.447 25.696-32.061 25.696-15.37 0-26.417-5.164-33.982-12.729zM801.074 84.446v-30.26h-9.606V40.859h9.606v-15.85h15.37v15.85h11.768v13.329h-11.768v26.176c0 3.603 1.921 6.364 5.283 6.364 2.282 0 4.443-.84 5.283-1.68l3.242 11.527c-2.281 2.041-6.363 3.722-12.728 3.722-10.686 0-16.45-5.523-16.45-15.85M869.651 98.855V92.85c-3.963 4.683-10.806 7.445-18.371 7.445-9.246 0-20.174-6.245-20.174-19.212 0-13.569 10.928-18.492 20.174-18.492 7.685 0 14.528 2.4 18.371 7.085V61.63c0-5.884-5.043-9.727-12.728-9.727-6.244 0-12.008 2.283-16.931 6.845l-5.763-10.207c7.084-6.243 16.209-9.125 25.336-9.125 13.208 0 25.336 5.283 25.336 21.974v37.464zm0-21.133c-2.521-3.363-7.325-5.044-12.248-5.044-6.004 0-10.927 3.242-10.927 8.765 0 5.404 4.923 8.526 10.927 8.526 4.923 0 9.727-1.68 12.248-5.042zM898.23 84.446v-30.26h-9.605V40.859h9.605v-15.85h15.37v15.85h11.768v13.329H913.6v26.176c0 3.603 1.922 6.364 5.284 6.364 2.281 0 4.442-.84 5.282-1.68l3.242 11.527c-2.281 2.041-6.363 3.722-12.727 3.722-10.687 0-16.451-5.523-16.451-15.85M957.549 39.417c17.291 0 29.059 12.968 29.059 31.94v3.362H943.5c.961 7.325 6.845 13.45 16.69 13.45 5.404 0 11.768-2.162 15.491-5.765l6.724 9.847c-5.884 5.403-14.89 8.045-23.896 8.045-17.651 0-30.979-11.888-30.979-30.5 0-16.81 12.368-30.379 30.019-30.379M943.26 64.393h28.578c-.36-5.524-4.203-12.848-14.289-12.848-9.487 0-13.569 7.085-14.289 12.848M246.204 190.523v-72.414h24.753c22.474 0 37.131 15.742 37.131 36.262 0 20.627-14.657 36.152-37.131 36.152zm9.012-8.034h15.741c17.588 0 27.793-12.594 27.793-28.118 0-15.634-9.879-28.229-27.793-28.229h-15.741zM338.703 136.783c15.851 0 25.188 12.376 25.188 28.118v2.063h-42.45c.651 9.88 7.6 18.131 18.891 18.131 5.971 0 12.051-2.388 16.177-6.622l3.908 5.319c-5.211 5.211-12.269 8.034-20.845 8.034-15.526 0-26.708-11.182-26.708-27.576 0-15.2 10.857-27.467 25.839-27.467m-17.262 24.21h34.416c-.108-7.818-5.319-17.48-17.262-17.48-11.182 0-16.72 9.445-17.154 17.48M371.272 177.713c3.474 4.016 10.098 7.49 17.263 7.49 8.034 0 12.376-3.582 12.376-8.686 0-5.753-6.405-7.599-13.462-9.336-8.903-2.063-18.999-4.451-18.999-15.307 0-8.143 7.056-15.091 19.542-15.091 8.902 0 15.2 3.365 19.434 7.599l-3.801 5.645c-3.148-3.8-8.902-6.622-15.633-6.622-7.165 0-11.617 3.257-11.617 7.925 0 5.103 5.972 6.732 12.811 8.36 9.12 2.063 19.651 4.668 19.651 16.286 0 8.793-7.056 15.85-20.628 15.85-8.576 0-15.851-2.606-21.17-8.251zM416.002 123.754c0-3.04 2.497-5.428 5.428-5.428 3.04 0 5.537 2.388 5.537 5.428s-2.497 5.538-5.537 5.538c-2.931 0-5.428-2.498-5.428-5.538m1.411 66.769v-52.438h8.142v52.438zM440.103 197.905c4.342 5.212 9.554 7.166 17.044 7.166 8.686 0 16.829-4.235 16.829-15.742v-7.491c-3.8 5.32-10.205 9.336-17.589 9.336-13.678 0-23.342-10.205-23.342-27.141 0-16.828 9.555-27.25 23.342-27.25 7.058 0 13.355 3.474 17.589 9.227v-7.925h8.143v50.918c0 17.371-12.16 22.799-24.972 22.799-8.902 0-14.981-1.737-21.169-7.816zm33.873-45.38c-2.823-4.56-9.12-8.469-15.635-8.469-10.53 0-16.827 8.361-16.827 19.977 0 11.507 6.297 19.976 16.827 19.976 6.515 0 12.812-4.017 15.635-8.576zM528.258 190.523v-34.307c0-9.229-4.669-12.16-11.725-12.16-6.405 0-12.486 3.909-15.526 8.142v38.325h-8.142v-52.438h8.142v7.6c3.692-4.343 10.858-8.902 18.674-8.902 10.965 0 16.72 5.536 16.72 16.936v36.804zM565.062 173.478c4.777 5.32 12.593 10.314 22.799 10.314 12.92 0 17.045-6.949 17.045-12.486 0-8.685-8.794-11.073-18.348-13.678-11.617-3.04-24.536-6.298-24.536-20.52 0-11.943 10.639-20.085 24.862-20.085 11.073 0 19.651 3.691 25.73 10.098l-5.428 6.622c-5.428-5.972-13.028-8.686-20.953-8.686-8.685 0-14.874 4.669-14.874 11.508 0 7.274 8.36 9.445 17.588 11.942 11.834 3.15 25.296 6.841 25.296 22.039 0 10.532-7.165 21.28-26.708 21.28-12.594 0-21.822-4.777-27.793-11.508z"/><path fill="#1b1b1b" d="M619.237 203.66c1.194.543 3.148.869 4.451.869 3.582 0 5.972-1.195 7.816-5.538l3.475-7.925-21.93-52.981h8.793l17.48 42.993 17.371-42.993h8.902l-26.273 63.078c-3.149 7.599-8.468 10.531-15.417 10.639-1.737 0-4.451-.325-5.971-.76zM669.286 177.713c3.475 4.016 10.097 7.49 17.262 7.49 8.034 0 12.377-3.582 12.377-8.686 0-5.753-6.406-7.599-13.463-9.336-8.902-2.063-18.999-4.451-18.999-15.307 0-8.143 7.056-15.091 19.542-15.091 8.902 0 15.2 3.365 19.434 7.599l-3.8 5.645c-3.148-3.8-8.903-6.622-15.634-6.622-7.165 0-11.616 3.257-11.616 7.925 0 5.103 5.971 6.732 12.81 8.36 9.121 2.063 19.651 4.668 19.651 16.286 0 8.793-7.056 15.85-20.628 15.85-8.576 0-15.851-2.606-21.17-8.251zM718.683 179.558V145.25h-8.685v-7.165h8.685v-14.331h8.143v14.331h10.639v7.165h-10.639v32.571c0 3.908 1.737 6.731 5.319 6.731 2.28 0 4.451-.977 5.537-2.171l2.388 6.079c-2.062 1.954-4.993 3.366-9.77 3.366-7.708 0-11.617-4.451-11.617-12.268M766.777 136.783c15.851 0 25.188 12.376 25.188 28.118v2.063h-42.45c.651 9.88 7.6 18.131 18.891 18.131 5.972 0 12.051-2.388 16.177-6.622l3.908 5.319c-5.211 5.211-12.268 8.034-20.845 8.034-15.526 0-26.708-11.182-26.708-27.576 0-15.2 10.858-27.467 25.839-27.467m-17.262 24.21h34.416c-.108-7.818-5.319-17.48-17.262-17.48-11.182 0-16.72 9.445-17.154 17.48M862.858 190.523v-35.609c0-6.624-2.931-10.858-9.663-10.858-5.428 0-11.182 3.909-13.896 8.035v38.432h-8.143v-35.609c0-6.624-2.823-10.858-9.662-10.858-5.32 0-10.966 3.909-13.789 8.142v38.325h-8.142v-52.438h8.142v7.6c2.173-3.366 9.229-8.902 16.937-8.902 8.034 0 12.594 4.342 14.114 9.77 2.931-4.777 9.988-9.77 17.587-9.77 9.555 0 14.657 5.319 14.657 15.851v37.889z"/><path fill="#245fc2" d="M89.514 110.894 56.19 77.556V48.47h116.295l44.656 44.966C211.154 42.511 167.87 3 115.354 3c-56.609 0-102.5 45.908-102.5 102.538 0 23.089 7.633 44.392 20.506 61.532"/><path fill="#0e324f" d="M56.19 77.48h66.649l-33.325 33.337zm116.294-29.086v116.339h-29.073v-66.7L53.926 187.55C71.046 200.39 92.311 208 115.354 208c56.609 0 102.5-45.908 102.5-102.538 0-4.106-.268-8.146-.738-12.125z"/></g><defs><clipPath id="a"><path fill="#fff" d="M0 0h985.608v218.967H0z"/></clipPath></defs></svg>
